X:352
T: Baulthy Oura
T: Baltiorum
N: O'Farrell's Pocket Companion v.4 (Sky ed. p.152)
N: "Irish"
% Meaning of the name (or lack thereof) is discussed in O'Neill's "Irish Folk Music", pages 198-199.
M: 9/8
L: 1/8
Q: 300
R: slip jig
K: Dmix
A/G/|: FAd FAd AFD| FAD FAD c2E| FAd FAd AFD| BGG AGF c2E :|
FGA AFd AFD| FGA AFd c2E| FGA AFd AFD| BGG AGF c2E :|
ded dcB AFD| ded def g2e| ddd fdB AFD| GFG EcB c2e :|
FFF GGG AFD| FFF GGG c2E| FFF GGG AFD| BGG AGF c2e :|
